icon/io/trash-sharp.svg

<svg xmlns="http://www.w3.org/2000/svg" width="512" height="512"><path d="M296 64h-80a7.91 7.91 0 0 0-8 8v24h96V72a7.91 7.91 0 0 0-8-8Z" style="fill:none"/><path d="M292 64h-72a4 4 0 0 0-4 4v28h80V68a4 4 0 0 0-4-4Z" style="fill:none"/><path d="M447.55 96H336V48a16 16 0 0 0-16-16H192a16 16 0 0 0-16 16v48H64.45L64 136h33l20.09 314A32 32 0 0 0 149 480h214a32 32 0 0 0 31.93-29.95L415 136h33ZM176 416l-9-256h33l9 256Zm96 0h-32V160h32Zm24-320h-80V68a4 4 0 0 1 4-4h72a4 4 0 0 1 4 4Zm40 320h-33l9-256h33Z"/></svg>

<svg xmlns="http://www.w3.org/2000/svg" viewBox="0 0 512 512" height="1em" width="1em">
  <path d="M296,64H216a7.91,7.91,0,0,0-8,8V96h96V72A7.91,7.91,0,0,0,296,64Z" style="fill:none"/>
  <path d="M292,64H220a4,4,0,0,0-4,4V96h80V68A4,4,0,0,0,292,64Z" style="fill:none"/>
  <path d="M447.55,96H336V48a16,16,0,0,0-16-16H192a16,16,0,0,0-16,16V96H64.45L64,136H97l20.09,314A32,32,0,0,0,149,480H363a32,32,0,0,0,31.93-29.95L415,136h33ZM176,416l-9-256h33l9,256Zm96,0H240V160h32ZM296,96H216V68a4,4,0,0,1,4-4h72a4,4,0,0,1,4,4Zm40,320H303l9-256h33Z"/>
</svg>
